!!!OTL: A LIEDLA Z SINGA
!!!ARE: Europa, Mitteleuropa, Deutschland, Bayern, Landshut
!!!SCT: E1466
!!!YEM: Copyright 1995, estate of Helmut Schaffrath.
**kern
*ICvox
*Ivox
*M3/4
*k[b-]
*F:
{4cc
=1
4dd
4.b-
8dd
=2
4cc
4.a}
{8cc
=3
4b-
4g
8g
8b-
=4
4b-
4a
8r}
{8cc
=5
4dd
4b-
4dd
=6
4cc
4.a}
{8cc
=7
4b-
4g
8e
8g
=8
4f
4a}
{4cc
=9
4b-
4g
4g
=10
2f}
==
!!!AGN: Staende -, Jaeger - Lied, Wilderer
!!!ONB: ESAC (Essen Associative Code) Database: ERK3
!!!AMT: simple triple
!!!AIN: vox
!!!EED: Helmut Schaffrath
!!!EEV: 1.0
*-
